X:1
T:Marachine (Vende)
M:2/4
L:1/8
N:originally in G
K:C
cg ge|gf/e/ d/f/e/d/|cg ge|g2 d2:|
d>e fe|de/d/ c2|dg fe|d2 c2:|
c2 BA|Bc d2|cd/e/ dc|1 AB AG:|2 AB c2||
cd/e/ fe|dc d2|de/f/ g>f|1ed ec:|2 ed c2|]
